X:74
T:Lord Hardwick's March continued
S:John Moore's Book 2
Z:Transcribed by Peter Kanssen 2-05-21
%%VWML: Moore1-4494-p57-0
F:http://www.vwml.org/record/Moore2/4494/p57
M:C|
K:D
L:1/8
|:d4 (A3d) | f4 (d3f) | a2d'>a f2a>f | d2f>d A2g2 |
 fA/A/ AA A2 g2 | fA/A/ AA A2g2 | f2a>a f2d2 | a2A>A A2:|
N:possibly the repeat should go back to the last section on the previous page, repeats are as in MS
|:A>A |AA/A/ AA AAAA | (g4e2)A>A | AA/A/ AA AAAA |
 (a4f2)A>A | AA/A/ AA AAAA | gz2 z/f/ gz2 z/f/  | gz fz ez2 d |
 cz Bz Az Gz | f2f>f f2f2 | f4 {a}(d'a)af | {f}e2 e>e e2e2 |
 e3f g>ba>g | {g}f2 f>f f2f2 | f3a d'aaf | ebag fedc | d2d>d d2:|

